trunk/public/assets/images/icons/red/move_up/decline-circle.svg

<svg width="16" height="16" xmlns="http://www.w3.org/2000/svg" viewBox="0 0 16 16" shape-rendering="geometricPrecision" fill="#cb1800"><defs><mask id="a"><rect fill="#fff" width="100%" height="100%"/><path fill="#000" d="M12.892-.396l-4.507 4.51 2.47 2.47 2.04-2.035 2.036 2.034 2.474-2.47z"/></mask></defs><path d="M12.894 3.136L14.93 5.17l1.06-1.056-3.098-3.096L9.8 4.114l1.056 1.057"/><path d="M8 1C4.132 1 1 4.135 1 8.003c.002 3.863 3.133 6.995 7 6.997 3.866-.002 7-3.134 7-6.997C15 4.135 11.866 1 8 1zm0 12.584c-3.084-.006-5.578-2.5-5.584-5.58C2.422 4.916 4.916 2.42 8 2.415c3.083.006 5.577 2.5 5.584 5.587-.007 3.08-2.5 5.575-5.585 5.58zm3.422-3.53L9.366 8l2.057-2.058-1.448-1.45L7.917 6.55 5.86 4.493 4.412 5.94 6.47 7.998l-2.06 2.058 1.45 1.45 2.06-2.058 2.055 2.057 1.447-1.45z" mask="url(#a)"/></svg>

<?xml version="1.0"?><!DOCTYPE svg PUBLIC "-//W3C//DTD SVG 1.1//EN" "http://www.w3.org/Graphics/SVG/1.1/DTD/svg11.dtd"><svg width="16px" height="16px" xmlns="http://www.w3.org/2000/svg" viewBox="0 0 16 16" shape-rendering="geometricPrecision" fill="#cb1800"><defs><mask id="move_up-path"><rect fill="#fff" width="100%" height="100%"/><polygon points="12.892,-0.396 8.385,4.114 10.856,6.585 12.894,4.549 14.931,6.584 17.404,4.114 " fill="#000"/></mask></defs><polygon points="12.894,3.136 14.931,5.171 15.989,4.114 12.892,1.018 9.799,4.114 10.856,5.171 " fill="#cb1800"/><g mask="url(#move_up-path)"><path d="M7.999,1C4.133,1,1,4.135,1,8.003C1.002,11.866,4.133,14.998,7.999,15C11.866,14.998,15,11.866,15,8.003 C15,4.135,11.866,1,7.999,1z M7.999,13.584c-3.083-0.006-5.577-2.5-5.583-5.581c0.006-3.086,2.5-5.581,5.583-5.587 c3.084,0.006,5.578,2.501,5.585,5.587C13.577,11.084,11.083,13.578,7.999,13.584z M11.422,10.054L9.366,7.999l2.057-2.057 l-1.448-1.45L7.917,6.55L5.86,4.493L4.412,5.941l2.057,2.056L4.41,10.055l1.451,1.45l2.058-2.058l2.056,2.057L11.422,10.054z"/></g></svg>
